!!!SOCIAL_FUNCTION:	bird dance songs
!!!PDT:	1956
!!!OTL: No_150_Fox_Dance_Song_(e).krn
!!!LANG: Non-Tone
!!!LING_GROUP: Muskogean
!!!REG: Florida
**kern
*staff1
=1-
*clefF4
*k[f#]
*M3/4
4.r
8G\
8E\L
16G\L
16G\JJ
=2!|:
4D\
8r
8G\
8E\L
16G\L
16G\JJ
=3
4D\
(8G\L
8E\J)
16D\LL
16D\J
8E\J
=4||
*M2/4
4D\
8BB/L
8BB/J
=5
4BB/
16D\LL
16D\J
8E\J
=6
4D\
4r
=7
8r
8G\
8E\L
16G\L
16G\JJ
=8:|!
4D\
8BB/L
8BB/J
=9
4BB/
4r
==
*-
